gtk-icons/Papirus-Dark-GTK/22x22/actions/exchange-positions-clockwise.svg

<?xml version="1.0" encoding="UTF-8" standalone="no"?>
<!-- Created with Inkscape (http://www.inkscape.org/) -->

<svg
   xmlns:dc="http://purl.org/dc/elements/1.1/"
   xmlns:cc="http://creativecommons.org/ns#"
   xmlns:rdf="http://www.w3.org/1999/02/22-rdf-syntax-ns#"
   xmlns:svg="http://www.w3.org/2000/svg"
   xmlns="http://www.w3.org/2000/svg"
   xmlns:sodipodi="http://sodipodi.sourceforge.net/DTD/sodipodi-0.dtd"
   xmlns:inkscape="http://www.inkscape.org/namespaces/inkscape"
   width="22"
   height="22"
   id="svg3869"
   version="1.1"
   inkscape:version="0.91 r13725"
   sodipodi:docname="exchange-positions-clockwise.svg">
  <defs
     id="defs3871">
    <style
       type="text/css"
       id="current-color-scheme">
      .ColorScheme-Text {
        color:#4d4d4d;
      }
      .ColorScheme-Background {
        color:#eff0f1;
      }
      .ColorScheme-Highlight {
        color:#3daee9;
      }
      .ColorScheme-ViewText {
        color:#31363b;
      }
      .ColorScheme-ViewBackground {
        color:#fcfcfc;
      }
      .ColorScheme-ViewHover {
        color:#93cee9;
      }
      .ColorScheme-ViewFocus{
        color:#3daee9;
      }
      .ColorScheme-ButtonText {
        color:#31363b;
      }
      .ColorScheme-ButtonBackground {
        color:#eff0f1;
      }
      .ColorScheme-ButtonHover {
        color:#93cee9;
      }
      .ColorScheme-ButtonFocus{
        color:#3daee9;
      }
      </style>
  </defs>
  <sodipodi:namedview
     id="base"
     pagecolor="#ffffff"
     bordercolor="#666666"
     borderopacity="1.0"
     inkscape:pageopacity="0.0"
     inkscape:pageshadow="2"
     inkscape:zoom="22.627416"
     inkscape:cx="-1.8657095"
     inkscape:cy="12.032563"
     inkscape:document-units="px"
     inkscape:current-layer="layer1"
     showgrid="false"
     fit-margin-top="0"
     fit-margin-left="0"
     fit-margin-right="0"
     fit-margin-bottom="0"
     inkscape:window-width="1600"
     inkscape:window-height="847"
     inkscape:window-x="0"
     inkscape:window-y="30"
     inkscape:window-maximized="1"
     inkscape:showpageshadow="false"
     inkscape:snap-bbox="true"
     inkscape:object-nodes="true"
     showguides="false">
    <inkscape:grid
       type="xygrid"
       id="grid4132" />
    <sodipodi:guide
       position="2,20.000017"
       orientation="18,0"
       id="guide4138" />
    <sodipodi:guide
       position="2,2.0000174"
       orientation="0,18"
       id="guide4140" />
    <sodipodi:guide
       position="20,2.0000174"
       orientation="-18,0"
       id="guide4142" />
    <sodipodi:guide
       position="20,20.000017"
       orientation="0,-18"
       id="guide4144" />
    <sodipodi:guide
       position="3,19.000017"
       orientation="16,0"
       id="guide4146" />
    <sodipodi:guide
       position="3,3.0000174"
       orientation="0,16"
       id="guide4148" />
    <sodipodi:guide
       position="19,3.0000174"
       orientation="-16,0"
       id="guide4150" />
    <sodipodi:guide
       position="19,19.000017"
       orientation="0,-16"
       id="guide4152" />
  </sodipodi:namedview>
  <metadata
     id="metadata3874">
    <rdf:RDF>
      <cc:Work
         rdf:about="">
        <dc:format>image/svg+xml</dc:format>
        <dc:type
           rdf:resource="http://purl.org/dc/dcmitype/StillImage" />
        <dc:title></dc:title>
      </cc:Work>
    </rdf:RDF>
  </metadata>
  <g
     inkscape:label="Capa 1"
     inkscape:groupmode="layer"
     id="layer1"
     transform="translate(-326,-534.3622)">
    <path
       style="color:#4d4d4d;fill:#ffffff;fill-opacity:1;stroke:none;stroke-opacity:1;opacity:0.72"
       d="M 3 3 L 3 10 L 11 10 L 11 3 L 3 3 z M 12 4.078125 L 12 5.0898438 L 12 8 L 13 8 L 13 5.3554688 C 15.39302 6.2015187 16.99478 8.46183 17 11 L 18 11 C 17.997 7.52271 15.44163 4.574875 12 4.078125 z M 4 11 C 4.003 14.47729 6.55837 17.425115 10 17.921875 L 10 16.910156 L 10 14 L 9 14 L 9 16.644531 C 6.60698 15.798481 5.00522 13.53817 5 11 L 4 11 z M 15.5 12 A 3.4999914 3.4999914 0 0 0 12 15.5 A 3.4999914 3.4999914 0 0 0 12.699219 17.59375 L 13.416016 16.876953 A 2.5 2.5 0 0 1 13 15.5 A 2.5 2.5 0 0 1 15.5 13 A 2.5 2.5 0 0 1 16.876953 13.416016 L 17.59375 12.699219 A 3.4999914 3.4999914 0 0 0 15.5 12 z M 18.300781 13.40625 L 17.583984 14.123047 A 2.5 2.5 0 0 1 18 15.5 A 2.5 2.5 0 0 1 15.5 18 A 2.5 2.5 0 0 1 14.123047 17.583984 L 13.40625 18.300781 A 3.4999914 3.4999914 0 0 0 15.5 19 A 3.4999914 3.4999914 0 0 0 19 15.5 A 3.4999914 3.4999914 0 0 0 18.300781 13.40625 z "
       transform="translate(326,534.3622)"
       id="rect4253" />
  </g>
</svg>

<?xml version="1.0" encoding="UTF-8" standalone="no"?>
<!-- Created with Inkscape (http://www.inkscape.org/) -->
<svg id="svg3869" xmlns:rdf="http://www.w3.org/1999/02/22-rdf-syntax-ns#" xmlns="http://www.w3.org/2000/svg" height="22" width="22" version="1.1" xmlns:cc="http://creativecommons.org/ns#" xmlns:dc="http://purl.org/dc/elements/1.1/">
 <defs id="defs3871">
  <style id="current-color-scheme" type="text/css">.ColorScheme-Text {
        color:#4d4d4d;
      }
      .ColorScheme-Background {
        color:#eff0f1;
      }
      .ColorScheme-Highlight {
        color:#3daee9;
      }
      .ColorScheme-ViewText {
        color:#31363b;
      }
      .ColorScheme-ViewBackground {
        color:#fcfcfc;
      }
      .ColorScheme-ViewHover {
        color:#93cee9;
      }
      .ColorScheme-ViewFocus{
        color:#3daee9;
      }
      .ColorScheme-ButtonText {
        color:#31363b;
      }
      .ColorScheme-ButtonBackground {
        color:#eff0f1;
      }
      .ColorScheme-ButtonHover {
        color:#93cee9;
      }
      .ColorScheme-ButtonFocus{
        color:#3daee9;
      }</style>
 </defs>
 <metadata id="metadata3874">
  <rdf:RDF>
   <cc:Work rdf:about="">
    <dc:format>image/svg+xml</dc:format>
    <dc:type rdf:resource="http://purl.org/dc/dcmitype/StillImage"/>
    <dc:title/>
   </cc:Work>
  </rdf:RDF>
 </metadata>
 <g id="layer1" transform="translate(-326 -534.36)">
  <path id="rect4253" opacity=".72" style="color:#4d4d4d" d="m3 3v7h8v-7h-8zm9 1.0781v1.0117 2.9102h1v-2.6445c2.393 0.846 3.995 3.1063 4 5.6445h1c-0.003-3.4773-2.558-6.4251-6-6.9219zm-8 6.9219c0.003 3.477 2.5584 6.425 6 6.922v-1.012-2.91h-1v2.645c-2.393-0.847-3.9948-3.107-4-5.645h-1zm11.5 1a3.5 3.5 0 0 0 -3.5 3.5 3.5 3.5 0 0 0 0.699 2.094l0.717-0.717a2.5 2.5 0 0 1 -0.416 -1.377 2.5 2.5 0 0 1 2.5 -2.5 2.5 2.5 0 0 1 1.377 0.416l0.717-0.717a3.5 3.5 0 0 0 -2.094 -0.699zm2.801 1.406l-0.717 0.717a2.5 2.5 0 0 1 0.416 1.377 2.5 2.5 0 0 1 -2.5 2.5 2.5 2.5 0 0 1 -1.377 -0.416l-0.717 0.717a3.5 3.5 0 0 0 2.094 0.699 3.5 3.5 0 0 0 3.5 -3.5 3.5 3.5 0 0 0 -0.699 -2.094z" transform="translate(326 534.36)" fill="#fff"/>
 </g>
</svg>
